X:5
T:Our Farewell Instr: Flute
C:Within Temptation, Transcribed and modified by Achazia Songweaver
N:
Q:1/4=60
V:1
M:2/4
L:1/16
K:C
z8 |z8 |z8 |z8 |z8 |z8 |z8 |z8 |z8 |z8 |z8 |z8 |
z8 |z8 |z8 |z8 |z8 |z8 |z8 |z8 |z4 G2E2 |D6 C2 |[z6E8] D2 |
D2 C6- |C4 A2G2- |G4 F2E2 |E4 D4 |D8 |z4 G2E2 |D2 C4 E2- |E6 D2 |D2C2 C4 |
z4 A2G2- |G4 F2E2 |E4 D4 |D8 |z4 A2G2 |G2 F4 E2- |E4 z2 G2 |G8 |z3 E E2G2 |
G4 c4 |A8- |A8 |z4 F2E2- |E2 D6 |CD E6- |E4 z4 |z4 E4 |F2 G4 c2 |z4 A2G2 |
G6 G2 |A6 c2 |A2G2 G2A2 |G8- |G4 z4 |z4 A2c2 |A2 G4 F2 |G4 c2B2- |B4 A2G2 |
E2C2 C4 |z4 A2G2 |C8- |C4 z4 |z4 G2E2 |[z6D8] C2 |E6 D2 |D2 C6- |C4 A2G2- |
G4 F2E2 |E4 D4 |D8 |z4 G2E2 |D2 C4 E2- |E6 D2 |D2C2 C4 |z4 A2G2- |G4 F2E2 |E4 D4 |
D8 |z4 A2G2 |G2 F4 E2- |E6 G2 |G8 |z3 E E2G2 |G4 c4 |A8- |A8 |z4 F2E2- |
E2 D6 |CD3 E4- |E8- |E4 E4 |F2 G4 c2 |z4 A2G2 |G6 G2 |A6 c2 |A2G2 G2A2 |
G8- |G4 z4 |z4 A2c2 |A2 G4 F2 |G4 c2B2- |B4 A2G2 |E2C2 C4- |C4 A2G2 |C8- |C8 |]
